src/stone-cut-oval.svg

<svg xmlns="http://www.w3.org/2000/svg" class="dibsvg-svg dibsvg-stone-cut-oval" viewBox="0 0 250 250">
    <path d="M187.6 36.5c-16.6-23.9-38.9-37-62.7-37-10.7 0-21.2 2.7-31.1 8C77.1 16.4 62.9 32 52.7 52.8 42.4 73.6 36.9 98.3 36.9 124c0 33 9 64 25.3 87.4 16.6 23.9 38.9 37.1 62.7 37.1 23.8 0 46.1-13.2 62.7-37.1 16.3-23.4 25.3-54.5 25.3-87.4s-9-64.1-25.3-87.5zM143 196.7l-9.5-6.3 13.8-7.7-4.3 14zM103 183l13.3 7.4-9.2 6.1L103 183zm21.8 12.4l15.1 10-14.9 29.1-15-29.3 14.8-9.8zm0-10.5l-25.6-14.3-14.8-48.7 13.7-43.2 26.7-14.9 25.7 14.3 14.5 45.7-14 46.5-26.2 14.6zM68.2 99.4l6.8 22.4-8.2 25.6-17.5-23.1 18.9-24.9zm7-7.9l11.5-6.4-6.9 21.6-4.6-15.2zm4.4 45.5l8.3 27.2-14.4-8 6.1-19.2zm27.1-85l9.5 6.3-14 7.8 4.5-14.1zm35.7.4l4.2 13.2-13.1-7.3 8.9-5.9zm-17.6.8L110 43.4l14.4-28.6 14.6 29-14.2 9.4zM162 84.5l12.8 7.2-5.1 17-7.7-24.2zm7.9 54.5l5.6 17.6-13.2 7.3 7.6-24.9zm4.6-15.2l7.3-24 18.5 24.5-18 23.9-7.8-24.4zM186 90.5l11.8-10.9c3.1 10.7 5 22.2 5.8 34.2L186 90.5zm-.1-12.1l2.7-22.7c2.3 4.6 4.4 9.4 6.2 14.5l-8.9 8.2zm-9.6 3.8L158 72l-7.4-23.1 30.1-3.5-4.4 36.8zM131.5 8.9c4.8.6 9.5 1.8 14.1 3.6l-2.7 18.9-11.4-22.5zm-24.9 21.2l-2.5-17.6c4.3-1.7 8.7-2.9 13.2-3.5l-10.7 21.1zM90.7 72.6l-17 9.4-4.2-34.9h29.2l-8 25.5zm-26.4 6.5L55.2 70c1.9-5.1 4-10 6.3-14.6l2.8 23.7zm-.9 11.8l-17.1 22.7c.7-11.8 2.7-23.3 5.8-34l11.3 11.3zm.1 67.1l-.1.3v.8l-10.9 11c-3.2-10.9-5.4-22.6-6.2-34.9L63.5 158zm28.1 18.6l8.1 26.6-.1.6-27.2 2.8v-40.8l19.2 10.8zm25.6 62.3c-4.4-.6-8.8-1.8-13-3.5l2.5-17.2 10.5 20.7zm25.9-20l2.4 16.6c-4.1 1.6-8.3 2.8-12.6 3.4l10.2-20zm15.5-42.5l17.9-10v38.4l-26.1-1.2 8.2-27.2zm44.9-41.4c-.8 11.7-2.7 22.9-5.7 33.3l-11.5-10.5 17.2-22.8zm-26.8-98.2l-25.9 3 3.3-23.2c8.3 4.9 15.9 11.7 22.6 20.2zM95.6 16.7l3.1 21.4H72.2c6.8-8.9 14.7-16.2 23.4-21.4zM55.7 179.6l7.7-7.7v24.6c-2.9-5.4-5.5-11-7.7-16.9zm20.9 35.7l21.7-2.2-2.6 18.2c-6.9-4-13.3-9.5-19.1-16zm77.4 16.1l-2.7-18.7 23.3 1c-6.2 7.3-13.1 13.3-20.6 17.7zm31.5-33.4v-28.9l9.3 8.6c-2.6 7.3-5.8 14.1-9.3 20.3z"/>
</svg>

<svg xmlns="http://www.w3.org/2000/svg" class="dibsvg-svg dibsvg-stone-cut-oval" viewBox="0 0 250 250">
    <path d="M187.6,36.5C171,12.6,148.7-0.5,124.9-0.5c-10.7,0-21.2,2.7-31.1,8c-16.7,8.9-30.9,24.5-41.1,45.3 C42.4,73.6,36.9,98.3,36.9,124c0,33,9,64,25.3,87.4c16.6,23.9,38.9,37.1,62.7,37.1c23.8,0,46.1-13.2,62.7-37.1 c16.3-23.4,25.3-54.5,25.3-87.4S203.9,59.9,187.6,36.5z M143,196.7l-9.5-6.3l13.8-7.7L143,196.7z M103,183l13.3,7.4l-9.2,6.1 L103,183z M124.8,195.4l15.1,10l-14.9,29.1l-15-29.3L124.8,195.4z M124.8,184.9l-25.6-14.3l-14.8-48.7l13.7-43.2l26.7-14.9 l25.7,14.3l14.5,45.7L151,170.3L124.8,184.9z M68.2,99.4l6.8,22.4l-8.2,25.6l-17.5-23.1L68.2,99.4z M75.2,91.5l11.5-6.4l-6.9,21.6 L75.2,91.5z M79.6,137l8.3,27.2l-14.4-8L79.6,137z M106.7,52l9.5,6.3l-14,7.8L106.7,52z M142.4,52.4l4.2,13.2l-13.1-7.3L142.4,52.4z M124.8,53.2L110,43.4l14.4-28.6l14.6,29L124.8,53.2z M162,84.5l12.8,7.2l-5.1,17L162,84.5z M169.9,139l5.6,17.6l-13.2,7.3 L169.9,139z M174.5,123.8l7.3-24l18.5,24.5l-18,23.9L174.5,123.8z M186,90.5l11.8-10.9c3.1,10.7,5,22.2,5.8,34.2L186,90.5z M185.9,78.4l2.7-22.7c2.3,4.6,4.4,9.4,6.2,14.5L185.9,78.4z M176.3,82.2L158,72l-7.4-23.1l30.1-3.5L176.3,82.2z M131.5,8.9 c4.8,0.6,9.5,1.8,14.1,3.6l-2.7,18.9L131.5,8.9z M106.6,30.1l-2.5-17.6c4.3-1.7,8.7-2.9,13.2-3.5L106.6,30.1z M90.7,72.6L73.7,82 l-4.2-34.9h29.2L90.7,72.6z M64.3,79.1L55.2,70c1.9-5.1,4-10,6.3-14.6L64.3,79.1z M63.4,90.9l-17.1,22.7c0.7-11.8,2.7-23.3,5.8-34 L63.4,90.9z M63.5,158l-0.1,0.3v0.8l-10.9,11c-3.2-10.9-5.4-22.6-6.2-34.9L63.5,158z M91.6,176.6l8.1,26.6l-0.1,0.6l-27.2,2.8v-40.8 L91.6,176.6z M117.2,238.9c-4.4-0.6-8.8-1.8-13-3.5l2.5-17.2L117.2,238.9z M143.1,218.9l2.4,16.6c-4.1,1.6-8.3,2.8-12.6,3.4 L143.1,218.9z M158.6,176.4l17.9-10v38.4l-26.1-1.2L158.6,176.4z M203.5,135c-0.8,11.7-2.7,22.9-5.7,33.3l-11.5-10.5L203.5,135z M176.7,36.8l-25.9,3l3.3-23.2C162.4,21.5,170,28.3,176.7,36.8z M95.6,16.7l3.1,21.4H72.2C79,29.2,86.9,21.9,95.6,16.7z M55.7,179.6 l7.7-7.7v24.6C60.5,191.1,57.9,185.5,55.7,179.6z M76.6,215.3l21.7-2.2l-2.6,18.2C88.8,227.3,82.4,221.8,76.6,215.3z M154,231.4 l-2.7-18.7l23.3,1C168.4,221,161.5,227,154,231.4z M185.5,198v-28.9l9.3,8.6C192.2,185,189,191.8,185.5,198z"/>
</svg>
